src/images/bullit.svg

<svg width="32" height="33" viewBox="0 0 32 33" fill="none" xmlns="http://www.w3.org/2000/svg">
<path d="M11.7809 13.9869C12.7364 13.748 13.4824 13.002 13.7212 12.0466L15.3531 5.51918C15.5214 4.84588 16.4783 4.84587 16.6466 5.51918L18.2784 12.0466C18.5173 13.002 19.2633 13.748 20.2187 13.9869L26.7461 15.6187C27.4194 15.787 27.4194 16.7439 26.7461 16.9122L20.2187 18.5441C19.2633 18.7829 18.5173 19.5289 18.2784 20.4844L16.6466 27.0117C16.4783 27.685 15.5214 27.685 15.3531 27.0117L13.7212 20.4844C13.4824 19.5289 12.7364 18.7829 11.7809 18.5441L5.25355 16.9122C4.58025 16.7439 4.58025 15.787 5.25355 15.6187L11.7809 13.9869Z" fill="url(#paint0_linear_429_6031)"/>
<defs>
<linearGradient id="paint0_linear_429_6031" x1="2.6665" y1="16.2655" x2="29.3332" y2="16.2655" gradientUnits="userSpaceOnUse">
<stop stop-color="#E65C00"/>
<stop offset="1" stop-color="#F9D423"/>
</linearGradient>
</defs>
</svg>

<svg width="32" height="33" fill="none" xmlns="http://www.w3.org/2000/svg"><path d="M11.78 13.987a2.667 2.667 0 0 0 1.941-1.94l1.632-6.528c.168-.673 1.125-.673 1.294 0l1.631 6.528a2.667 2.667 0 0 0 1.94 1.94l6.528 1.632c.673.168.673 1.125 0 1.293l-6.527 1.632a2.667 2.667 0 0 0-1.94 1.94l-1.632 6.528c-.169.673-1.126.673-1.294 0l-1.632-6.528a2.666 2.666 0 0 0-1.94-1.94l-6.527-1.632c-.674-.168-.674-1.125 0-1.293l6.527-1.632Z" fill="url(#a)"/><defs><linearGradient id="a" x1="2.667" y1="16.265" x2="29.333" y2="16.265" gradientUnits="userSpaceOnUse"><stop stop-color="#E65C00"/><stop offset="1" stop-color="#F9D423"/></linearGradient></defs></svg>
